X: 31
T:The Battle of Waterloo
M:4/4
L:1/8
C:ABB
R:Reel
K:Am
ed/2B/2|"Am"A2 A>B AG GA|"C"c>d ec "Dm"d2 e<g|"Am"a>g ed "Em"ed BA|"G"G>
E GA "Em"G2 ed/2B/2|!
|"Am"A2 A>B AG GA|"C"c>d ec "Dm"d2 e<g|"Am"a>g ed "Dm"cA "Em"BG|"Am"A2 A
>B A2||!
ef||:"C"g>f ed c>d ef|"C"g>a ge g2 ef/2g/2|"Am"a>g ed "Em"ed BA|"G"G>E G
A "Em"G2 ed/2B/2|!
|"Am"A2 A>B AG GA|"C"c>d ec "Dm"d2 e<g|"Am"a>g ed "Dm"cA "Em"BG|"Am"A2 A
>B A2:||
